X:1
T:Title
%%score { 1 | 2 }
L:1/8
M:3/4
K:Ab
V:1 treble nm="Grand Piano"
V:2 bass 
V:1
 z2 z2[Q:1/4=96] [CE]>[DF] | [CE]3 [CA] [DF][DA] | [CE]2 [Ec]2 [EB][EA] | [=DA]3 F GA |[M:2/4] B4 | %5
[M:1/4] E>F |[M:3/4] [CE]3 [CA] [DF][Fd] | [Ec]2 [CE]2 [EF][Ec] | [EB]3 [E=A] [=D_A]>[DF] | %9
[M:2/4] E4 |[M:1/4] GA |[M:3/4] B3 F GF | [CF]2 [CE]2 [EA][EG] | [DF]3 [FA] [FB][FA] |[M:2/4] E4 | %15
[M:1/4] cd |[M:3/4] e3 e [Fd][Ec] | [FB]2 F2 [FA][=EB] | [Ec]3 [Fd] [Ec][DB] |[M:2/4] [CA]4 |] %20
V:2
 z2 z2 [A,,A,]>[A,,A,] | [A,,A,]3 [A,,E,] [A,,A,][A,,F,] | [A,,A,]2 [A,,A,]2 [C,A,][C,A,] | %3
 [B,,B,]3 [A,B,=D] [G,B,D][F,B,D] |[M:2/4] [E,G,D]4 |[M:1/4] [E,G,D]>[E,G,D] | %6
[M:3/4] [A,,A,]3 [A,,E,] [A,,A,][A,,A,] | [A,,A,]2 [A,,A,]2 [A,,F,][=A,,_G,] | %8
 [B,,G,]3 [B,,_G,] [B,,F,]>[B,,A,] |[M:2/4] [E,G,]4 |[M:1/4] [E,B,E][E,F,E] | %11
[M:3/4] [E,G,D]3 [E,G,D] [E,B,D][E,G,D] | [A,,A,]2 [A,,A,]2 [C,A,][C,B,] | %13
 [D,A,]3 [D,D] [D,D][D,D] |[M:2/4][K:treble] [A,C]4 |[M:1/4] [A,A][A,B,A] | %16
[M:3/4] [A,CA]3 [A,CA][K:bass] [A,,A,][A,,A,] | [D,A,]2 [D,D]2 [D,A,][D,A,] | %18
 [E,A,]3 [E,A,] [E,G,][E,G,] |[M:2/4] [A,,A,]4 |] %20

